X:1
T:Juringius
R:Polska
O:Juringius, Smland
M:3/4
L:1/8
K:Bm
f2 Bf Bf|g>f ef ga|e2 Ae Ae|
f>e de fg|f2 ed cB|A/B/c/A/ B4:|
c2 Ec Ec|d>c Bc de|c2 Ec Ec|d>c Bc de|
e3/2z/ Ae Ae|f>e de fg|f2 ed cB|A/B/c/A/ B4:|
